svg/justvector/robo.to.svg

<svg xmlns="http://www.w3.org/2000/svg" viewBox="0 0 100 100" enable-background="new 0 0 100 100"><path d="m57.689 40.929c0-1.804 1.449-3.266 3.24-3.266 1.787 0 3.237 1.462 3.237 3.266s-1.45 3.267-3.237 3.267c-1.79-.0001-3.24-1.464-3.24-3.267m-10.08-27.823h-.027v4.477h4.109v-4.346c1.415-.717 2.395-2.176 2.395-3.881 0-2.406-1.932-4.355-4.318-4.355-2.385 0-4.319 1.949-4.319 4.355-.0001 1.61.873 2.997 2.16 3.75m-8.992 31.09c1.787 0 3.237-1.463 3.237-3.267s-1.45-3.266-3.237-3.266c-1.791 0-3.24 1.462-3.24 3.266s1.449 3.267 3.24 3.267m11.151 50.806c4.875 0 9.02-3.127 10.592-7.5h-21.18c1.574 4.373 5.716 7.5 10.592 7.5m-33.77-13.27c0-1.728 1.01-3.208 2.453-3.911v-18.518c0-3.652 2.82-6.635 6.385-6.872v-8.96c0 0 .867-16.332 14.34-21.412 4-1.508 7.656-2.118 10.822-2.233 3.168.115 6.822.725 10.821 2.232 13.475 5.08 14.343 21.412 14.343 21.412v8.96c3.563.237 6.383 3.22 6.383 6.872v18.519c1.447.703 2.453 2.184 2.453 3.911 0 2.405-1.934 4.354-4.319 4.354-2.384 0-4.317-1.949-4.317-4.354 0-1.728 1.01-3.208 2.45-3.911v-12.38c-.803.415-1.702.664-2.649.729v4.302c.024.348.053.693.053 1.049 0 .377-.025.75-.053 1.123v.1h-.005c-.575 7.168-6.136 12.911-13.185 13.694l.006.097h-11.981-11.982l.008-.097c-7.05-.783-12.609-6.526-13.184-13.694h-.004v-.1c-.027-.373-.053-.746-.053-1.123 0-.355.027-.701.053-1.049v-4.301c-.95-.065-1.85-.314-2.653-.729v12.38c1.447.703 2.453 2.184 2.453 3.911 0 2.405-1.933 4.354-4.319 4.354-2.384 0-4.319-1.949-4.319-4.355m41.21-22.775c0-1.156-.93-2.096-2.078-2.096-1.15 0-2.08.939-2.08 2.096 0 1.158.93 2.098 2.08 2.098 1.148 0 2.078-.94 2.078-2.098m5.117 0c0-1.156-.93-2.096-2.078-2.096s-2.08.939-2.08 2.096c0 1.158.932 2.098 2.08 2.098s2.078-.94 2.078-2.098m5.119 0c0-1.156-.93-2.096-2.078-2.096-1.15 0-2.08.939-2.08 2.096 0 1.158.93 2.098 2.08 2.098 1.149 0 2.078-.94 2.078-2.098m-34.943-17.422c0 5.564 4.319 5.928 4.319 5.928 1.503.479 4.679.241 6.116 0 1.323-.225 6.176-.648 6.949-.717.029.003.076.008.115.001.041-.002.087-.007.115-.001.772.068 5.625.492 6.948.717 1.44.241 4.614.479 6.118 0 0 0 4.317-.363 4.317-5.928 0 0 0-6.17-4.317-9.92-4.188-3.637-10.482-4.426-12.952-4.473v-.004c-.034 0-.078.003-.114.003-.037 0-.082-.003-.115-.003-.035 0-.079.003-.115.003-.037 0-.081-.003-.115-.003v.004c-2.467.047-8.763.836-12.95 4.473-4.319 3.75-4.319 9.92-4.319 9.92"/></svg>

<?xml version="1.0" encoding="iso-8859-1"?>
<!-- Generator: Adobe Illustrator 15.0.0, SVG Export Plug-In . SVG Version: 6.00 Build 0)  -->
<!DOCTYPE svg PUBLIC "-//W3C//DTD SVG 1.1//EN" "http://www.w3.org/Graphics/SVG/1.1/DTD/svg11.dtd">
<svg version="1.1" id="Layer_1" xmlns="http://www.w3.org/2000/svg" xmlns:xlink="http://www.w3.org/1999/xlink" x="0px" y="0px"
	 width="100px" height="100px" viewBox="0 0 100 100" style="enable-background:new 0 0 100 100;" xml:space="preserve">
<path id="Robo.to" d="M57.689,40.929c0-1.804,1.449-3.266,3.24-3.266c1.787,0,3.237,1.462,3.237,3.266s-1.45,3.267-3.237,3.267
	C59.139,44.195,57.689,42.732,57.689,40.929z M47.611,13.106h-0.027v4.477h4.109v-4.346c1.415-0.717,2.395-2.176,2.395-3.881
	c0-2.406-1.932-4.355-4.318-4.355c-2.385,0-4.319,1.949-4.319,4.355C45.45,10.966,46.324,12.353,47.611,13.106z M38.619,44.195
	c1.787,0,3.237-1.463,3.237-3.267s-1.45-3.266-3.237-3.266c-1.791,0-3.24,1.462-3.24,3.266S36.828,44.195,38.619,44.195z
	 M49.77,95.001c4.875,0,9.018-3.127,10.592-7.5H39.178C40.752,91.874,44.894,95.001,49.77,95.001z M16,81.731
	c0-1.728,1.006-3.208,2.453-3.911V59.302c0-3.652,2.82-6.635,6.385-6.872v-8.96c0,0,0.867-16.332,14.34-21.412
	C43.18,20.55,46.834,19.94,50,19.825c3.168,0.115,6.822,0.725,10.821,2.232c13.475,5.08,14.343,21.412,14.343,21.412v8.96
	c3.563,0.237,6.383,3.22,6.383,6.872V77.82C82.994,78.523,84,80.004,84,81.731c0,2.405-1.934,4.354-4.319,4.354
	c-2.384,0-4.317-1.949-4.317-4.354c0-1.728,1.006-3.208,2.45-3.911V65.44c-0.803,0.415-1.702,0.664-2.649,0.729v4.302
	c0.024,0.348,0.053,0.693,0.053,1.049c0,0.377-0.025,0.75-0.053,1.123v0.1h-0.005c-0.575,7.168-6.136,12.911-13.185,13.694
	l0.006,0.097H50H38.018l0.008-0.097c-7.049-0.783-12.609-6.526-13.184-13.694h-0.004v-0.1c-0.027-0.373-0.053-0.746-0.053-1.123
	c0-0.355,0.027-0.701,0.053-1.049V66.17c-0.95-0.065-1.85-0.314-2.653-0.729v12.38c1.447,0.703,2.453,2.184,2.453,3.911
	c0,2.405-1.933,4.354-4.319,4.354C17.935,86.086,16,84.137,16,81.731z M57.207,58.956c0-1.156-0.93-2.096-2.078-2.096
	c-1.15,0-2.08,0.939-2.08,2.096c0,1.158,0.93,2.098,2.08,2.098C56.277,61.054,57.207,60.114,57.207,58.956z M62.324,58.956
	c0-1.156-0.93-2.096-2.078-2.096s-2.08,0.939-2.08,2.096c0,1.158,0.932,2.098,2.08,2.098S62.324,60.114,62.324,58.956z
	 M67.443,58.956c0-1.156-0.93-2.096-2.078-2.096c-1.15,0-2.08,0.939-2.08,2.096c0,1.158,0.93,2.098,2.08,2.098
	C66.514,61.054,67.443,60.114,67.443,58.956z M32.5,41.534c0,5.564,4.319,5.928,4.319,5.928c1.503,0.479,4.679,0.241,6.116,0
	c1.323-0.225,6.176-0.648,6.949-0.717c0.029,0.003,0.076,0.008,0.115,0.01c0.041-0.002,0.087-0.007,0.115-0.01
	c0.772,0.068,5.625,0.492,6.948,0.717c1.44,0.241,4.614,0.479,6.118,0c0,0,4.317-0.363,4.317-5.928c0,0,0-6.17-4.317-9.92
	c-4.188-3.637-10.482-4.426-12.952-4.473v-0.004c-0.034,0-0.078,0.003-0.114,0.003c-0.037,0-0.082-0.003-0.115-0.003
	c-0.035,0-0.079,0.003-0.115,0.003c-0.037,0-0.081-0.003-0.115-0.003v0.004c-2.467,0.047-8.763,0.836-12.95,4.473
	C32.5,35.364,32.5,41.534,32.5,41.534z"/>
</svg>
